X:3385
L:1/4
M:2/4
K:G
 D/G/ | B B G G | F A z B | c c F F | G3 D/G/ | B B A G | F A z e | d c B3/2 A/ | G2 z :: B/d/ | 
 e/d/^c/d/ B G | F A =c3/2 e/ | e/d/^c/d/ =c A | G B/d/ g B/d/ | e/d/^c/d/ B G | F A =c3/2 e/ | 
 e/d/^c/d/ =c F | G3 :|

